!!!!SEGMENT: pl-wtm--r-116-n--004_noskowski-zygmunt--causeries-op-32-barcarolle.krn
!!!id: 18xx:2138
!!!COM: Noskowski, Zygmunt
!!!COM-rism: pe106604
!!!CDT: 1846/05/02-1909/07/23
!!!CNT: Polish
!!!OTL: Causeries op. 32 – Barcarolle
!!!PDT: 1850
!!!SMS-siglum: PL-Wtm
!!!SMS-shelfmark: R 116/N
!!!NIFC-rismID: 1001084175
!!!URL-scan: http://repozytorium.nifc.pl/skany/pl-wtm-nut--r116n
!!!ONB-nifc:
!!!SMS-variant:
!!!SMS-altvar:
**kern	**fing	**kern	**fing	**dynam
*part2	*	*part1	*part1	*part1
*staff2	*	*staff1	*staff1	*
*I"Piano	*	*I"Piano	*	*
*clefF4	*	*clefG2	*	*
*k[b-]	*	*k[b-]	*	*
*M6/8	*	*M6/8	*	*
!	!	!LO:TX:i:a:t=Allegretto tranquillo	!	!LO:DY:b
!	!	!LO:TX:t=P:problem:4, 8, 16\left, middle or right:global	!	!
*ped	*	*	*	*
(<8C/	.	8r	.	p
=1	=1	=1	=1	=1
8FF/)	.	2.r	.	.
8r	.	.	.	.
(>8c\	.	.	.	.
8f 8A\)	.	.	.	.
8r	.	.	.	.
(<8C/	.	.	.	.
=2	=2	=2	=2	=2
8FF/)	.	2.r	.	.
8r	.	.	.	.
(>8c\	.	.	.	.
8f 8A\)	.	.	.	.
8r	.	.	.	.
(<8C/	.	.	.	.
=3	=3	=3	=3	=3
!	!	!LO:TX:i:a:t=cantabile	!	!
8FF/)	.	4r	.	.
*Xped	*	*	*	*
8r	.	.	.	.
!	!	!	!	!LO:DY:b:rj
*ped	*	*	*	*
(>8c\	.	(>8a/	.	p
8e 8B-\)	.	4g/	.	.
8r	.	.	.	.
(<8C/	.	8cc\	.	.
=4	=4	=4	=4	=4
8FF/)	.	8a/L	.	.
8r	.	8g/	.	.
(>8c\	.	8f/J	.	.
*Xped	*	*	*	*
8e 8B-\)	.	4g/)	.	.
8r	.	.	.	.
*ped	*	*	*	*
(<8C/	.	(>8cc\	.	.
!!LO:LB:g=original
=5	=5	=5	=5	=5
8FF/)	.	4ff\)	.	.
8r	.	.	.	.
(>8c\	.	(>8cc\	.	.
*Xped	*	*	*	*
8g 8B-\)	.	4ee\)	.	.
!	!	!	!	!LO:HP:b
8r	.	.	.	>
*ped	*	*	*	*
(<8C/	.	(>8cc\	.	.
=6	=6	=6	=6	=6
8FF/)	.	[<4.a/	.	.
8r	.	.	.	]
(>8c\	.	.	.	.
*Xped	*	*	*	*
8f 8A\)	.	8a/])	.	.
8r	.	8r	.	.
*ped	*	*	*	*
(<8C/	.	8r	.	.
=7	=7	=7	=7	=7
8CC/)	.	4r	.	.
8r	.	.	.	.
!	!	!	!	!LO:DY:b:rj
(>8G\	.	(>8ee\	.	mf
8Bn 8F\)	.	4dd\	.	.
8r	.	.	.	.
(<8GG/	.	8gg\	.	.
=8	=8	=8	=8	=8
8CC/)	.	8ee\L	.	.
8r	.	8dd\	.	.
(>8G\	.	8cc\J)	.	.
8Bn 8F\)	.	4dd\	.	.
*Xped	*	*	*	*
8r	.	.	.	.
*ped	*	*	*	*
(<8GG/	.	(>8gg\	.	.
!!LO:LB:g=original
=9	=9	=9	=9	=9
8CC/)	.	4ccc\)	.	.
8r	.	.	.	.
(>8G\	.	(>8gg\	.	.
8d 8F\)	.	4bbn\)	.	.
*Xped	*	*	*	*
8r	.	.	.	.
*ped	*	*	*	*
(<8GG/	.	(>8gg\	.	.
=10	=10	=10	=10	=10
8CC/)	.	[>4.bb-X\	.	.
8r	.	.	.	.
(>8G\	.	.	.	.
8c 8E\)	.	4bb-\])	.	.
8r	.	.	.	.
(<8GG/	.	8r	.	.
=11	=11	=11	=11	=11
4CC/)	.	8r	.	.
*Xped	*	*	*	*
!	!	!	!	!LO:DY:b:rj
.	.	(>16dd\LL	.	p
.	.	16b-\	.	.
8r	.	16a\	.	.
.	.	16b-\JJ	.	.
4e 4B- 4G\	.	16g\LL	.	.
.	.	16cc\	.	.
.	.	16dd\	.	.
.	.	16cc\J	.	.
8r	.	8gg\J)	.	.
=12	=12	=12	=12	=12
!	!	!	!	!LO:HP:b
4GG/	.	8r	.	<
.	.	(>16ff\LL	5	.
.	.	16dd\	3	.
8r	.	16cc\	.	[
.	.	16dd\JJ	.	.
4f 4d 4B- 4G\	.	16b-\LL	1	.
.	.	16ff\	.	.
.	.	16gg\	.	.
.	.	16ff\J	.	.
8r	.	8bb-\J)	.	.
!!LO:PB:g=original
=13	=13	=13	=13	=13
4D 4DD/	.	8r	.	.
!	!	!	!	!LO:DY:b
.	.	(>16ddd\LL	.	mf
.	.	16bb-\	.	.
8r	.	16ccc\	.	.
.	.	16bb-\JJ	.	.
4g 4d 4B-\	.	16aa\LL	.	.
.	.	16gg\	.	.
.	.	16bb-\	.	.
.	.	16dd\	1	.
!	!	!	!	!LO:HP:b:t=cresc
8r	.	16ff\	3	<
.	.	16gg\JJ	.	.
=14	=14	=14	=14	=14
4C 4CC/	.	16ee\LL	.	.
.	.	16aa\	.	.
.	.	16gg\	.	.
.	.	16ee\	.	.
8r	.	16gg\	5	.
.	.	16dd\JJ	.	.
4e: 4B-: 4C:\	.	16cc\LL	1	.
.	.	16ee\	.	.
.	.	16aa\	4	.
.	.	16gg\	1	.
8r	.	16ccc\	.	.
.	.	16eee\JJ	.	.
=15	=15	=15	=15	=15
*ped	*	*	*	*
8FF 8FFF/	.	8fff\)	.	.
8r	.	8r	.	.
!	!	!	!	!LO:DY:b
8A 8F 8C\	.	8r	.	f
!	!	!LO:TX:i:b:t=gajo.	!	!
8c 8A 8F\	.	4.fff 4.ff^>\	.	.
8r	.	.	.	.
8FF 8FFF/	.	.	.	.
*Xped	*	*	*	*
!!LO:LB:g=original
=16	=16	=16	=16	=16
*ped	*	*	*	*
8FF 8FFF/	.	(>4eee 4ee\	.	.
8r	.	.	.	.
8A 8F 8C\	.	8ccc 8cc\	.	.
8c 8A 8F\	.	4aa 4a\	.	.
*Xped	*	*	*	*
8r	.	.	.	.
*ped	*	*	*	*
8FF 8FFF/	.	8ddd 8dd\)	.	.
=17	=17	=17	=17	=17
8FF 8FFF/	.	(>4bb- 4b-\	.	.
8r	.	.	.	.
8B- 8E 8C\	.	8ee 8e/)	.	.
8c 8B- 8E\	.	4.ddd 4.dd\	.	.
8r	.	.	.	.
*Xped	*	*	*	*
8FF 8FFF/	.	.	.	.
=18	=18	=18	=18	=18
*ped	*	*	*	*
8FF 8FFF/	.	(>8cccL 8cc\	.	.
8r	.	8bb- 8b-\	.	.
!LO:TX:i:b:t=simile.	!	!	!	!
8B- 8E 8C\	.	8ffJ 8f\	.	.
8c 8B- 8E\	.	8aaL 8a\	.	.
8r	.	8gg 8g\	.	.
8FF 8FFF/	.	8bb-J 8b-\)	.	.
=19	=19	=19	=19	=19
8FF 8FFF/	.	4aa 4a\	.	.
8r	.	.	.	.
8A 8F 8C\	.	8r	.	.
8c 8A 8F\	.	4.fff 4.ff^>\	.	.
8r	.	.	.	.
8FF 8FFF/	.	.	.	.
!!LO:LB:g=original
=20	=20	=20	=20	=20
!	!	!LO:TX:i:b:t=sostenuto	!	!
8FF 8FFF/	.	8eeeL 8ee\	.	.
8r	.	8ggg 8gg^>\	.	.
8A 8F 8C^>\	.	8fffJ 8ff^>\	.	.
8c 8A 8F^>\	.	8eeeL 8ee^>\	.	.
8r	.	8ccc 8cc^>\	.	.
8FF 8FFF/	.	8aaJ 8a^>\	.	.
=21	=21	=21	=21	=21
8FF 8FFF/	.	(>4bb- 4b-\	.	.
8r	.	.	.	.
8B- 8E 8C\	.	8ee 8e/)	.	.
8c 8B- 8E\	.	4.ddd 4.dd\	.	.
8r	.	.	.	.
8FF 8FFF/	.	.	.	.
=22	=22	=22	=22	=22
8FF 8FFF/	.	(>4ccc 4cc\	.	.
8r	.	.	.	.
8B- 8E 8C\	.	8gg 8g\	.	.
8c 8B- 8E\	.	8aaL 8a\	.	.
8r	.	8bb- 8b-\	.	.
8FF 8FFF/	.	8eeeJ 8ee\	.	.
=23	=23	=23	=23	=23
4FF 4FFF/	.	4fff 4aa 4ff\)	.	.
8r	.	8r	.	.
!	!	!	!	!LO:DY:b:rj
4f 4A-X\	.	(>16aa-X\LL	4	p
.	.	16bb-\	.	.
.	.	16aa-\	.	.
.	.	16ff\	.	.
8D-X\	.	16dd-X\	.	.
.	.	16aa-\JJ	.	.
!!LO:LB:g=original
=24	=24	=24	=24	=24
4e-X 4G-X\	.	16cc\LL	1	.
!	!	!	!	!LO:HP:b
.	.	16gg-X\	2	<
.	.	16bb-\	4	.
.	.	16aa-X\)	3	[
8D-X\	.	16eee-X'>\JJ	5	.
.	.	16r	.	.
4g-X 4A-X\	.	(>16fff\LL	5	.
.	.	16eee-\	.	.
!	!	!	!	!LO:HP:b
.	.	16ccc\	.	>
.	.	16gg-\	1	.
8D-\	.	16aa-\	.	.
.	.	16bb-\JJ	.	.
=25	=25	=25	=25	=25
4f 4A-X\	.	16ddd-X\LL	5	.
.	.	16bb-\	3	]
.	.	16aa-X\	.	.
.	.	16bb-\	.	.
8r	.	16aa-\	.	.
.	.	16bb-\JJ	.	.
4f 4An\	.	16ccc\LL	.	.
.	.	16dddn\	.	.
.	.	16ccc\	.	.
.	.	16aan\	.	.
8C/	.	16ff\	.	.
.	.	16ccc\JJ	.	.
=26	=26	=26	=26	=26
4en 4Gn\	.	16een\LL	.	.
!	!	!	!	!LO:HP:b
.	.	16bb-\	.	<
.	.	16ddd\)	.	.
.	.	16ccc\	.	.
8C/	.	16ggg\JJ	.	[
.	.	16r	.	.
4e 4B- 4G\	.	(>16aaa\LL	5	.
.	.	16ggg\	.	.
.	.	16eee\	.	.
.	.	16bb-\	1	.
8r	.	16ccc\	.	.
.	.	16ddd\JJ)	.	.
!!LO:LB:g=original
=27	=27	=27	=27	=27
4f 4A\	.	(>16fff\LL	.	.
.	.	16eee\	.	.
.	.	16fff\	.	.
.	.	16ccc\	.	.
8F\	.	16ddd\	.	.
.	.	16aa\JJ	.	.
4f 4A\	.	16fff\LL	.	.
.	.	16eee\	.	.
!	!	!	!	!LO:HP:b:t=diminuendo.
.	.	16fff\	.	>
.	.	16ccc\	.	.
8D\	.	16ddd\	.	.
.	.	16aa\JJ	.	.
=28	=28	=28	=28	=28
4f 4Bn 4G\	.	16fff\LL	.	.
.	.	16eee\	.	.
!	!	!LO:TX:i:b:t=e rallentando	!	!
.	.	16fff\	.	.
.	.	16bbn\	.	.
8GG'</	.	16ddd\	.	.
.	.	16bb\JJ	.	.
8C'</	.	16fff\LL	.	.
.	.	16eee\	.	.
8r	.	16fff\	.	.
.	.	16ccc\	.	.
8e 8B-X\	.	16ddd\	.	.
.	.	16gg\JJ	.	.
=29	=29	=29	=29	=29
8f 8A 8F\	.	8fff\)	.	.
8r	.	8r	.	.
(<8C/	.	8r	.	.
8FF/)	.	4r	.	.
8r	.	.	.	.
!	!	!LO:TX:i:b:t=V. S.	!	!
(<8C#X/	.	8r	.	.
!!LO:PB:g=original
=30	=30	=30	=30	=30
8FF/)	.	2.r	.	.
8r	.	.	.	.
(<8C#X/	.	.	.	.
8EE/)	.	.	.	.
8r	.	.	.	.
!	!	!	!	!LO:DY:b
(<8AA/	.	.	.	mf
=31	=31	=31	=31	=31
*	*^	*	*	*
!	!	!	!LO:TX:i:a:t=espressivo e tranquillo	!	!
*ped	*	*	*	*	*
16DD/LL	.	.	4r	.	.
16AA/	.	.	.	.	.
16D/	.	1	.	.	.
16E/	.	4	.	.	.
16F/	.	.	(<8a/	.	.
16G/JJ	.	.	.	.	.
8A\)	.	.	4dd 4f/	.	.
8r	.	.	.	.	.
8r	.	.	8ee 8g/	.	.
=32	=32	=32	=32	=32	=32
(<16DD/LL	.	.	4cc#X 4e/)	.	.
16AA/	.	.	.	.	.
16E/	.	.	.	.	.
16D/	.	3	.	.	.
16C#X/	.	4	(>8a/	.	.
16E/JJ	.	2	.	.	.
8A\)	.	1	4gg 4ee\	.	.
8r	.	.	.	.	.
8r	.	.	8b-\	.	.
*	*v	*v	*	*	*
=33	=33	=33	=33	=33
(<16DD/LL	.	4a/)	.	.
16AA/	.	.	.	.
16E/	.	.	.	.
16D/	.	.	.	.
16C#X/	.	(>8bb- 8gg\	.	.
16E/JJ	.	.	.	.
8A\)	.	4aa 4ff\	.	.
8r	.	.	.	.
8r	.	8gg 8ee\	.	.
!!LO:LB:g=original
=34	=34	=34	=34	=34
(<16DD/LL	.	4aa 4ff\)	.	.
16AA/	.	.	.	.
16D/	.	.	.	.
16E/	.	.	.	.
16F/	.	(>16dd\LL	.	.
16G/JJ)	.	16ee\JJ	.	.
8A\	.	4ff\)	.	.
8r	.	.	.	.
!	!	!	!	!LO:DY:b
8r	.	(>16ff\LL	.	p
.	.	16gg\JJ	.	.
=35	=35	=35	=35	=35
8r	.	8aa\L	.	.
(>16D\LL	.	8fff\	.	.
16A\J	.	.	.	.
8f\J)	.	8eee\J	.	.
8r	.	8ddd\L	.	.
(>16F\LL	.	8aa\)	.	.
16d\J	.	.	.	.
8a\J)	.	8ccc\J	.	.
=36	=36	=36	=36	=36
8r	.	(>8bb-\L	.	.
(>16G\LL	.	8eee\	.	.
16d\J	.	.	.	.
8b-\J)	.	8ddd\J	.	.
8r	.	8bb-\L	.	.
(>16BB-\LL	.	8ee\	.	.
16G\J	.	.	.	.
8d\J)	.	8ff\J)	.	.
=37	=37	=37	=37	=37
*	*^	*	*	*
16r	.	.	(>8gg\L	.	.
(>16AA\LL	.	5	.	.	.
16E\	.	2	8aa\	.	.
16G\	.	1	.	.	.
16A\	.	3	8bb-\J	.	.
16c#X\JJ)	.	.	.	.	.
8e\	.	.	8aa\L	.	.
8r	.	.	8eee\	.	.
8r	.	.	8gg\J	.	.
*	*v	*v	*	*	*
!!LO:LB:g=original
=38	=38	=38	=38	=38
*	*^	*	*	*
(>16D\LL	.	.	4.ff\	.	.
16A\	.	.	.	.	.
16Bn\	.	1	.	.	.
16c#X\	.	4	.	.	.
16d\	.	.	.	.	.
16e\JJ	.	.	.	.	.
8f\)	.	.	4aa\)	.	.
8r	.	.	.	.	.
(<8AA/	.	.	8r	.	.
*	*v	*v	*	*	*
=39	=39	=39	=39	=39
16DD/LL	.	4r	.	.
16AA/	.	.	.	.
16D/	.	.	.	.
!	!	!	!	!LO:DY:b
16E/	.	.	.	f
16F/	.	(<8a/	.	.
16G/JJ)	.	.	.	.
8A\	.	4dd 4f/	.	.
8r	.	.	.	.
8r	.	8ee 8g/	.	.
=40	=40	=40	=40	=40
(<16DD/LL	.	4cc#X 4e/)	.	.
16AA/	.	.	.	.
16E/	.	.	.	.
16D/	.	.	.	.
16C#X/	.	(>8a/	.	.
16E/JJ	.	.	.	.
8A\)	.	4gg 4ee\	.	.
8r	.	.	.	.
8r	.	8b-\	.	.
=41	=41	=41	=41	=41
(<16DD/LL	.	4a/)	.	.
16AA/	.	.	.	.
16E/	.	.	.	.
16D/	.	.	.	.
16C#X/	.	(>8bb- 8gg\	.	.
16E/JJ	.	.	.	.
8A\)	.	4aa 4ff\	.	.
8r	.	.	.	.
8r	.	8gg 8ee\	.	.
!!LO:LB:g=original
=42	=42	=42	=42	=42
(<16DD/LL	.	4aa 4ff\)	.	.
16AA/	.	.	.	.
16D/	.	.	.	.
16E/	.	.	.	.
16F/	.	(>16dd\LL	.	.
16G/JJ)	.	16ee\JJ	.	.
8A\	.	4ff\)	.	.
8r	.	.	.	.
!	!	!	!	!LO:DY:b:rj
8r	.	(>16ff\LL	.	p
!	!	!	!	!LO:HP:b
.	.	16gg\JJ	.	<
=43	=43	=43	=43	=43
8r	.	8aa\L	.	.
(>16BBn\LL	.	8fff\	.	.
16F\J	.	.	.	.
8d\J)	.	8eee\J	.	[
8r	.	8ggg\L	.	.
(>16A\LL	.	8fff\	.	.
16Bn\J	.	.	.	.
8f\J)	.	8ddd\J)	.	.
=44	=44	=44	=44	=44
8r	.	(>8eee\L	.	.
(>16C\LL	.	8ff\	.	.
16A\J	.	.	.	.
8e\J)	.	8ee\J	.	.
8r	.	8aa\L	.	.
(>16E\LL	.	8bbn\	.	.
16c\J	.	.	.	.
8a\J)	.	8ccc\J)	.	.
=45	=45	=45	=45	=45
!	!	!	!	!LO:DY:b
16r	.	(>8eee\L	.	mf
(>16E\LL	.	.	.	.
16Bn\	.	8ddd\	.	.
16c\	.	.	.	.
16d\	.	8fff\J	.	.
16d#X\JJ	.	.	.	.
!	!	!	!	!LO:HP:b
8e\)	.	8aa\L	.	>
8r	.	8gg#X\	.	.
8r	.	8bbn\J	.	]
!!LO:LB:g=original
=46	=46	=46	=46	=46
8r	.	4aa\)	.	.
(>16AA\LL	.	.	.	.
16E\	.	.	.	.
!	!	!	!	!LO:DY:b
16A\	.	8r	.	p
16c\JJ	.	.	.	.
4e\)	.	(>16ee\LL	3	.
.	.	16ff\	.	.
.	.	16ee\	.	.
.	.	16cc\	.	.
8r	.	16a\	.	.
.	.	16ee\JJ	.	.
=47	=47	=47	=47	=47
*	*^	*	*	*
(>8Bn\L	.	2	16g#X\LL	1	.
.	.	.	16dd\	2	.
8d\	.	1	16ff\	4	.
.	.	.	16ee\	3	.
8G#X\J	.	3	16bbn\	5	.
.	.	.	16ee\JJ	1	.
8B\)	.	2	16ff#X\LL	.	.
.	.	.	16gg#X\	.	.
8r	.	.	16aa\	1	.
.	.	.	16bb\	.	.
8E'>\	.	.	16ccc\	.	.
.	.	.	16ddd\JJ	1	.
*	*v	*v	*	*	*
=48	=48	=48	=48	=48
*	*	*8va	*	*
8AA'>\L	.	16eee\LL	.	.
.	.	16fffn\	.	.
8E'>\	.	16eee\	.	.
.	.	16fff\	.	.
8c'>\J	.	16eee\	.	.
.	.	16fff\JJ	.	.
8C'>\L	.	16eee\LL	1	.
.	.	16fff\	.	.
8A'>\	.	16fff#X\	.	.
.	.	16ggg\	1	.
8e'>\J	.	16ggg#X\	2	.
.	.	16aaa\JJ	1	.
=49	=49	=49	=49	=49
8D'>\L	.	16bbbn\LL	2	.
.	.	16cccc\	3	.
8Bn'>\	.	16eeee\	.	.
.	.	16dddd\	.	.
8f'>\J	.	16bbb\	.	.
.	.	16fff\JJ	1	.
8E'>\L	.	16cccc\LL	5	.
.	.	16bbb\	.	.
8B'>\	.	16ggg#X\	.	.
.	.	16ddd\	1	.
8d'>\J	.	16eee\	.	.
.	.	16fff\JJ	.	.
!!LO:PB:g=original
=50	=50	=50	=50	=50
!	!	!LO:TX:a:t=P:problem:brak zakończenia łuku	!	!
(>16c\LL	3	4aaa\)	.	.
16d\	.	.	.	.
16e\	.	.	.	.
16G#X\	3	.	.	.
*	*	*X8va	*	*
!	!	!LO:TX:i:a:t=loco	!	!
16A\	.	8r	.	.
16c\JJ	.	.	.	.
8E'>\L)	.	(>16ggn\LL	.	.
.	.	16aa\	.	.
8c'>\	.	16gg\	.	.
.	.	16ee\	.	.
8g'>\J	.	16cc\	.	.
.	.	16gg\JJ	.	.
=51	=51	=51	=51	=51
8D'>\L	.	16bn\LL	.	.
.	.	16ff\	.	.
8Bn'>\	.	16aa\	.	.
.	.	16gg\	.	.
8f'>\J	.	16ddd\	.	.
.	.	16gg\JJ	1	.
8F'>\L	.	16aa\LL	.	.
.	.	16bbn\	.	.
8Bn'>\	.	16ccc\	1	.
!	!	!	!	!LO:HP:b:t=crescendo
.	.	16ddd\	.	<
8d'>\J	.	16eee\	.	.
.	.	16fff\JJ	1	.
=52	=52	=52	=52	=52
*	*	*8va	*	*
8E'>\L	.	16ggg\LL	.	.
.	.	16aaa\	.	.
8c'>\	.	16ggg\	.	.
.	.	16aaa\	.	.
8e'>\J	.	16ggg\	.	.
.	.	16aaa\JJ	.	.
4C/	.	16ggg\LL	1	.
.	.	16aaa\	.	.
.	.	16bbb-X\	.	.
.	.	16bbbn\	4	.
8g 8e 8B-X\	.	16cccc\	1	.
.	.	16cccc#X\JJ	.	.
!!LO:LB:g=original
=53	=53	=53	=53	=53
4f 4c 4A\	.	16dddd\LL	3	.
.	.	16eeee\	4	.
.	.	16gggg\	5	.
.	.	16ffff\	4	.
8r	.	16cccc\	.	.
.	.	16aaa\JJ	.	.
4r	.	16dddd\LL	5	.
.	.	16cccc\	.	.
.	.	16aaa\	.	.
.	.	16fff\	.	.
(<8C/	.	16ggg\	.	.
.	.	16aaa\JJ	.	.
=54	=54	=54	=54	=54
8CC/)	.	16ggg\LL	.	.
.	.	16aaa\	.	.
8r	.	16ggg\	.	.
.	.	16aaa\	.	.
8r	.	16ggg\	.	.
.	.	16aaa\JJ	.	.
!	!	!	!	!LO:DY:b:rj
8e: 8G: 8C:\	.	16ggg\LL	.	f
.	.	16cccc\	5	.
8r	.	16bbbn\	.	.
.	.	16bbb-X\	.	.
8r	.	16aaa\	1	.
.	.	16aaa-X\JJ	.	.
=55	=55	=55	=55	=55
2.r	.	16ggg\LL	.	.
.	.	16fff#X\	.	.
.	.	16fffn\	.	.
.	.	16eee\	.	.
.	.	16eee-X\	.	.
.	.	16ddd\JJ	.	.
*	*	*X8va	*	*
.	.	16ddd-X\LL	.	.
.	.	16ccc\	.	.
.	.	16bbn\	.	.
.	.	16bb-X\	.	.
.	.	16aa\	.	.
.	.	16aa-X\JJ	.	.
!!LO:LB:g=original
=56	=56	=56	=56	=56
2.r	.	16gg\LL	.	.
.	.	16ff#X\	.	.
!	!	!	!	!LO:HP:b:t=diminuendo
.	.	16ffn\	.	>
.	.	16ee\	.	.
.	.	16ee-X\	.	.
.	.	16dd\JJ	.	.
.	.	16dd-X\LL	.	.
.	.	16cc\	.	.
.	.	16bn\	.	.
.	.	16b-X\	.	.
.	.	16a\	.	.
.	.	16a-X\JJ	.	.
=57	=57	=57	=57	=57
2.r	.	16g/LL	.	.
.	.	16f#X/	.	.
.	.	16fn/	.	.
.	.	16e/	.	.
.	.	16e-X/	.	.
.	.	16d/JJ	.	.
.	.	16d-X/LL	.	.
.	.	16c/	.	.
.	.	16d-/	.	.
.	.	16c/	.	.
.	.	16d-/	.	.
.	.	16c/JJ)	.	.
=58	=58	=58	=58	=58
!	!	!LO:TX:i:a:t=sostenuto	!	!LO:DY:b:rj
*ped	*	*	*	*
4GG 4GGG/	.	(<16e-X/LL	.	p
.	.	16d-X/	.	.
.	.	16c/	.	.
.	.	16d-/	.	.
8r	.	16f/JJ)	.	.
.	.	16r	.	.
4F 4D-X\	.	(<16G/LL	.	.
.	.	16f/	.	.
*Xped	*	*	*	*
.	.	16e-/	.	.
.	.	16d-/	.	.
8r	.	16b-/JJ)	.	.
.	.	16r	.	.
!!LO:LB:g=original
=59	=59	=59	=59	=59
2.r	.	(<16cc/LL	.	.
.	.	16b-/	.	.
.	.	16f/	.	.
.	.	16g/	.	.
.	.	16dd-X/JJ)	.	.
.	.	16r	.	.
.	.	(>16ee-X\LL	.	.
.	.	16dd-\	.	.
.	.	16a\	.	.
.	.	16b-\	.	.
.	.	16gg\JJ)	.	.
.	.	16r	.	.
=60	=60	=60	=60	=60
*ped	*	*	*	*
4C 4CC/	.	(<16c/LL	.	.
.	.	16d-X/	.	.
.	.	16c/	.	.
.	.	16en/	.	.
8r	.	16a-X/JJ)	.	.
.	.	16r	.	.
4B- 4C\	.	(<16e/LL	.	.
.	.	16g/	.	.
.	.	16f/	.	.
*Xped	*	*	*	*
.	.	16e/	.	.
8r	.	16cc/JJ)	.	.
.	.	16r	.	.
=61	=61	=61	=61	=61
!	!	!LO:TX:i:b:t=rallent	!	!
2.r;>	.	(>16b-\LL	.	.
!	!	!	!	!LO:HP:b
.	.	16cc\	.	>
.	.	16dd-X\	.	.
.	.	16cc\J	.	.
.	.	8gg\J	.	.
.	.	16b-\LL	.	.
.	.	16cc\	.	.
.	.	16dd-\	.	.
.	.	16cc\J	.	.
.	.	8gg#X;>\J)	.	]
=62	=62	=62	=62	=62
!	!	!LO:TX:i:a:t=à tempo	!	!LO:DY:b
*ped	*	*	*	*
8C 8FF/	.	8aa: 8ff: 8cc: 8a:\	.	pp
8r	.	8r	.	.
(>8c\	.	(>8aa 8a\	.	.
8e 8B-\)	.	4gg 4g\	.	.
8r	.	.	.	.
(<8C/	.	8ccc 8cc\	.	.
!!LO:LB:g=original
=63	=63	=63	=63	=63
8FF/)	.	8aaL 8a\	.	.
8r	.	8gg 8g\	.	.
(>8c\	.	8ffJ 8f\)	.	.
8e 8B-\)	.	4gg 4g\	.	.
8r	.	.	.	.
!	!	!LO:TX:i:b:t=dolce	!	!
(<8C/	.	(>8ccc 8cc\	.	.
=64	=64	=64	=64	=64
8FF/)	.	8fff 8ff\)	.	.
8r	.	8r	.	.
(>8c\	.	(>8ccc 8cc\	.	.
8g 8B-\)	.	8eee 8ee\)	.	.
8r	.	8r	.	.
(<8C/	.	(>8ccc 8cc\	.	.
=65	=65	=65	=65	=65
8FF/)	.	[>4.aa [<4.a\)	.	.
8r	.	.	.	.
(>8c\	.	.	.	.
8f 8A\)	.	8aa] 8a\]	.	.
8r	.	8r	.	.
!	!	!	!	!LO:HP:b
(<8C/	.	8r	.	<
=66	=66	=66	=66	=66
8CC/)	.	4r	.	[
!	!	!	!	!LO:DY:b
8r	.	.	.	mf
(>8G\	.	(>8eee 8ee\	.	.
8Bn 8F\)	.	4ddd 4dd\	.	.
8r	.	.	.	.
(<8GG/	.	8ggg 8gg\	.	.
!!LO:PB:g=original
=67	=67	=67	=67	=67
8CC/)	.	8eeeL 8ee\	.	.
8r	.	8ddd 8dd\	.	.
(>8G\	.	8cccJ 8cc\)	.	.
8Bn 8F\)	.	4ddd 4dd\	.	.
8r	.	.	.	.
*	*	*8va	*	*
!	!	!LO:TX:i:b:t=dolce	!	!LO:DY:b:rj
(<8GG/	.	(>8ggg 8gg\	.	p
=68	=68	=68	=68	=68
8CC/)	.	4cccc 4ccc\)	.	.
8r	.	.	.	.
(>8G\	.	(>8ggg 8gg\	.	.
8d 8F\)	.	4bbbn 4bbn\)	.	.
8r	.	.	.	.
8r	.	(>8ggg 8gg\	.	.
=69	=69	=69	=69	=69
!	!	!	!	!LO:HP:b
8E-X 8EE-X/	.	[>4.bbb-X [<4.bb-X\)	.	>
8r	.	.	.	.
(>8B-\	.	.	.	]
8e-X 8G\)	.	8bbb-] 8bb-\]	.	.
*	*	*X8va	*	*
8r	.	8r	.	.
8E-\	.	8r	.	.
=70	=70	=70	=70	=70
!	!	!	!	!LO:DY:b
8D-X\L	.	8r	.	p
8e-XJ 8B- 8G\	.	(<16b-/LL	.	.
.	.	16g/	.	.
8r	.	16a-X/	.	.
!	!	!	!	!LO:HP:b
.	.	16g/JJ	.	<
8C\L	.	16e-X/LL	.	.
.	.	16a-/	.	.
8e-J 8A-X\	.	16b-/	.	.
.	.	16a-/J	.	[
8r	.	8ee-X/J)	.	.
!!LO:LB:g=original
=71	=71	=71	=71	=71
8C-X\L	.	8r	.	.
8d-XJ 8A-X 8F\	.	(16ff\LL	.	.
.	.	16dd-X\	.	.
!	!	!	!	!LO:HP:b:t=cresc
8r	.	16ee-\	.	<
.	.	16dd-\JJ	.	.
8BB-\L	.	16g-X\LL	.	.
.	.	16dd-\	.	.
8d-J 8G-X\	.	16ee-\	.	.
.	.	16dd-\J	.	.
8r	.	8gg-X\J)	.	.
=72	=72	=72	=72	=72
4AAn/	.	8r	.	.
!	!	!	!	!LO:DY:b:rj
.	.	(>16ggn\LL	.	mf
.	.	16cc#X\	.	.
8r	.	16dd\	.	.
.	.	16cc#\JJ	.	.
4en 4c#X 4A 4G\	.	16g\LL	.	.
.	.	16cc#\	.	.
.	.	16een\	.	.
.	.	16dd#X\	2	.
8r	.	16ee\	.	.
.	.	16ff#X\JJ	.	.
=73	=73	=73	=73	=73
4Cn^< 4CCn/	.	16gg\LL	5	.
.	.	16ee\	.	.
.	.	16ffn\	.	.
.	.	16ee\	.	.
8r	.	16b-X\	1	.
.	.	16dd\JJ	2	.
4e: 4B-: 4G: 4C:\	.	16ccn\LL	1	.
.	.	16ee\	.	.
!	!	!	!	!LO:HP:b
.	.	16aa\	.	<
.	.	16gg\	.	.
8r	.	16ccc\	.	.
.	.	16eee\JJ	.	[
!!LO:LB:g=original
=74	=74	=74	=74	=74
8FF 8FFF/	.	8fff\)	.	.
8r	.	8r	.	.
8A 8F 8C\	.	8r	.	.
!	!	!	!	!LO:DY:b:rj
8c 8A 8F\	.	4.fff^> 4.ff\	.	f
!	!	!LO:TX:i:b:t=gajo	!	!
8r	.	.	.	.
8FF 8FFF/	.	.	.	.
=75	=75	=75	=75	=75
8FF 8FFF/	.	(>4eee 4ee\	.	.
8r	.	.	.	.
8A 8F 8C\	.	8ccc 8cc\	.	.
8c 8A 8F\	.	4aa 4a\	.	.
8r	.	.	.	.
8FF 8FFF/	.	8ddd 8dd\)	.	.
=76	=76	=76	=76	=76
8FF 8FFF/	.	(>4bb- 4b-\	.	.
8r	.	.	.	.
8B- 8E 8C\	.	8ee\ 8e\	.	.
8c 8B- 8E\	.	4.ddd 4.dd\)	.	.
8r	.	.	.	.
8FF 8FFF/	.	.	.	.
=77	=77	=77	=77	=77
8FF 8FFF/	.	(>8cccL 8cc\	.	.
8r	.	8bb- 8b-\	.	.
8B- 8E 8C\	.	8ffJ 8f\	.	.
8c 8B- 8E\	.	8aaL 8a\	.	.
8r	.	8gg 8g\	.	.
8FF 8FFF/	.	8bb-J 8b-\	.	.
=78	=78	=78	=78	=78
8FF 8FFF/	.	4aa 4a\)	.	.
8r	.	.	.	.
8A 8F 8C\	.	8r	.	.
!	!	!	!	!LO:DY:b
8c 8A 8F\	.	4.fff^> 4.ff\	.	ff
8r	.	.	.	.
8FF 8FFF/	.	.	.	.
!!LO:LB:g=original
=79	=79	=79	=79	=79
!	!	!LO:TX:i:b:t=ritenuto	!	!
8FF 8FFF/	.	8eeeL 8ee\	.	.
8r	.	8ggg^> 8gg\	.	.
8A^> 8F 8C\	.	8fff^>J 8ff\	.	.
8c^> 8A 8F\	.	8eee^>L 8ee\	.	.
8r	.	8ccc^> 8cc\	.	.
8FF 8FFF/	.	8aaJ 8a^\	.	.
=80	=80	=80	=80	=80
!	!	!LO:TX:i:a:t=à tempo	!	!
8FF 8FFF/	.	(>4bb- 4b-\	.	.
8r	.	.	.	.
8B- 8E 8C\	.	8ee 8e/	.	.
8c 8B- 8E\	.	4.ddd 4.dd\)	.	.
8r	.	.	.	.
8FF 8FFF/	.	.	.	.
=81	=81	=81	=81	=81
8FF 8FFF/	.	(>4ccc 4cc\	.	.
8r	.	.	.	.
8B- 8E 8C\	.	8gg 8g\	.	.
8c 8B- 8E\	.	8aaL 8a\	.	.
8r	.	8bb- 8b-\	.	.
8FF 8FFF/	.	8eeeJ 8ee\	.	.
=82	=82	=82	=82	=82
4FF 4FFF/	.	4fff 4aa 4ff\)	.	.
8r	.	8r	.	.
!	!	!	!	!LO:DY:b
4f 4A-X\	.	(>16aa-X\LL	.	p
.	.	16bb-\	.	.
.	.	16aa-\	.	.
.	.	16ff\	.	.
8D-X\	.	16dd-X\	.	.
.	.	16aa-\JJ	.	.
=83	=83	=83	=83	=83
4e-X 4G-X\	.	16cc\LL	.	.
.	.	16gg-X\	.	.
.	.	16bb-\	.	.
.	.	16aa-X\)	.	.
8D-X\	.	16eee-X\JJ	.	.
.	.	16r	.	.
4g-X 4A-X\	.	(>16fff\LL	5	.
.	.	16eee-\	.	.
.	.	16ccc\	.	.
.	.	16gg-\	1	.
8D-\	.	16aa-\	.	.
.	.	16bb-\JJ	.	.
!!LO:LB:g=original
=84	=84	=84	=84	=84
4f 4A-X\	.	16ddd-X\LL	5	.
!	!	!	!	!LO:HP:b
.	.	16bb-\	.	>
.	.	16aa-X\	.	.
.	.	16bb-\	.	.
8r	.	16aa-\	.	.
.	.	16bb-\JJ	.	]
!	!	!	!	!LO:DY:b:rj
4g#X 4Bn\	.	16bbn\LL	4	pp
.	.	16ccc#X\	.	.
.	.	16bb\	.	.
.	.	16gg#X\	.	.
8E\	.	16een\	.	.
.	.	16bb\JJ	.	.
=85	=85	=85	=85	=85
4f#X 4A\	.	16dd#X\LL	1	.
.	.	16aa\	2	.
.	.	16ccc#X\	.	.
.	.	16bbn\)	.	.
8E\	.	16fff#X\JJ	.	.
.	.	16r	.	.
4f# 4A\	.	(>16ggg#X\LL	5	.
.	.	16fff#\	.	.
.	.	16ddd#X\	.	.
.	.	16aa\	.	.
8E\	.	16bb\	.	.
.	.	16ccc#\JJ	.	.
=86	=86	=86	=86	=86
4e 4G#X\	.	16eee\LL	.	.
.	.	16ddd#X\	.	.
!	!	!	!	!LO:HP:b
.	.	16eee\	.	<
.	.	16bbn\	.	.
8E\	.	16ccc#X\	.	.
.	.	16gg#X\JJ	.	.
4e 4G#\	.	16eee\LL	.	[
.	.	16ddd#\	.	.
.	.	16eee\	.	.
.	.	16bb\	.	.
8Dn\	.	16ccc#\	.	.
.	.	16gg#\JJ)	.	.
!!LO:PB:g=original
=87	=87	=87	=87	=87
4e 4A 4Gn\	.	(>16eee\LL	.	.
.	.	16ddd\	.	.
.	.	16eee\	.	.
.	.	16bbn\	.	.
!	!	!	!	!LO:HP:b:t=cresc
8C#X/	.	16ccc#\	.	<
.	.	16aa\JJ	.	.
4e 4B-X 4G\	.	16eee\LL	.	.
.	.	16ddd\	.	.
.	.	16eee\	.	.
.	.	16aa\	.	.
8Cn/	.	16bb-X\	.	.
.	.	16gg\JJ	.	.
=88	=88	=88	=88	=88
!	!	!	!	!LO:DY:b:rj
4e 4B- 4G\	.	16eee\LL	.	f
.	.	16ddd\	.	.
.	.	16eee\	.	.
.	.	16aa\	.	.
8r	.	16bb-\	.	.
.	.	16gg\JJ	.	.
4r	.	16gg#X\LL	.	.
.	.	16aa\	.	.
.	.	16bb-\	.	.
!	!	!	!	!LO:HP:b
.	.	16bbn\	.	>
8r	.	16ccc\	.	.
.	.	16ccc#X\JJ	.	.
=89	=89	=89	=89	=89
2.r	.	16ddd\LL	.	.
.	.	16ddd#X\	.	.
.	.	16eee\	.	.
.	.	16ggg\	.	.
.	.	16bb-X\	.	.
.	.	16fff\JJ	.	.
.	.	16gg\LL	.	.
.	.	16eee\	.	.
.	.	16ff\	.	.
.	.	16bb-\	.	.
.	.	16ee\	.	.
.	.	16gg\JJ	.	]
!!LO:LB:g=original
=90	=90	=90	=90	=90
!	!	!	!	!LO:HP:b:t=diminuendo
2.r	.	16b-\LL	.	>
.	.	16ff\	.	.
.	.	16g\	.	.
.	.	16ee\	.	.
.	.	16b-\	.	.
.	.	16ff\JJ	.	.
.	.	16ee\LL	.	.
.	.	16gg\	.	.
.	.	16dd\	.	.
.	.	16gg#X\	.	.
.	.	16cc\	.	.
.	.	16gg#\JJ	.	.
=91	=91	=91	=91	=91
!	!	!LO:TX:i:b:t=rallent.	!	!
2.r	.	16bn\LL	.	.
.	.	16gg#X\	.	.
.	.	16ee\	.	.
.	.	16gg#\	.	.
.	.	16dd\	.	.
.	.	16gg#\JJ	.	.
.	.	16b-X\LL	.	.
.	.	16gg#\	.	.
.	.	16ee\	.	.
.	.	16gg#\	.	.
.	.	16dd\	.	.
.	.	16gg#\JJ)	.	.
=92	=92	=92	=92	=92
!	!	!LO:TX:a:i:t=Poco più tranquillo	!	!LO:DY:b:rj
(>16FF\LL	.	8aa: 8ff: 8cc:\	.	pp
16C\	.	.	.	.
16A\	.	8r	.	.
16c\J	.	.	.	.
!	!	!LO:TUP:a	!	!
8fJ 8A\	.	(>24aa\LL	.	.
.	.	24bb-\	.	.
.	.	24aa\JJ	.	.
8e 8B-\)	.	4gg\	.	.
8r	.	.	.	.
8r	.	8eee\)	.	.
=93	=93	=93	=93	=93
!	!	!LO:TUP:a	!	!
(>16FF\LL	.	(>24aa\LL	.	.
.	.	24bb-\	.	.
16C\	.	.	.	.
.	.	24aa\J	.	.
16A\	.	8gg\	.	.
16c\J	.	.	.	.
8fJ 8A\	.	8ff\J	.	.
4e 4B-\)	.	4gg\)	.	.
!	!	!LO:TUP:a	!	!
8r	.	(>24ccc\LL	.	.
.	.	24ddd\	.	.
.	.	24ccc\JJ	.	.
!!LO:LB:g=original
=94	=94	=94	=94	=94
!	!	!	!	!LO:HP:b
(>4a 4c\	.	4fff\)	.	<
!	!	!LO:TUP:a	!	!
8F\)	.	(>24ccc\LL	.	[
.	.	24ddd\	.	.
.	.	24ccc\JJ	.	.
(>4g 4B-\	.	4eee\)	.	.
!	!	!LO:TUP:a	!	!
8F\)	.	(>24ccc\LL	.	.
.	.	24ddd\	.	.
!	!	!	!	!LO:HP:b
.	.	24ccc\JJ	.	>
=95	=95	=95	=95	=95
(>4f 4c 4A\	.	[>4.aa\)	.	.
8F\)	.	.	.	]
(>4f 4c 4A\	.	8aa\]	.	.
.	.	8r	.	.
!	!	!LO:TUP:a	!	!LO:DY:b
8D\)	.	(>24cc\LL	.	pp
.	.	24dd\	.	.
.	.	24cc\JJ	.	.
=96	=96	=96	=96	=96
*ped	*	*	*	*
(>4f 4Bn 4G\	.	[>4.ff\	.	.
8D\	.	.	.	.
4f 4B 4G\)	.	8ff\])	.	.
.	.	8r	.	.
*Xped	*	*	*	*
8r	.	(>24cc\LL	.	.
.	.	24dd\	.	.
.	.	24cc\JJ	.	.
=97	=97	=97	=97	=97
*ped	*	*	*	*
4e 4c 4A\	.	[>2.ee\)	.	.
(>8E\	.	.	.	.
4AA/)	.	.	.	.
*Xped	*	*	*	*
8r	.	.	.	.
=98	=98	=98	=98	=98
*ped	*	*	*	*
4e 4B- 4G\	.	4.ee\_>	.	.
(<8C/	.	.	.	.
4CC/)	.	8ee\]	.	.
.	.	8r	.	.
!	!	!LO:TUP:a	!	!
*Xped	*	*	*	*
8r	.	(>24cc\LL	.	.
.	.	24dd\	.	.
.	.	24cc\JJ	.	.
!!LO:LB:g=original
=99	=99	=99	=99	=99
*ped	*	*	*	*
4f 4c 4A\	.	8.a/L	.	.
.	.	16b-/L	.	.
(<8C/	.	16a/	.	.
.	.	16b-/JJ	.	.
4FF/)	.	16bn\LL	1	.
.	.	16dd\	3	.
.	.	16cc\	2	.
!	!	!LO:TX:i:b:t=con delicatezza.	!	!
.	.	16aa\	5	.
8r	.	16gg\	.	.
.	.	16aa\JJ	.	.
=100	=100	=100	=100	=100
2.r	.	16ee\LL	1	.
.	.	16gg\	.	.
.	.	16ff\	.	.
.	.	16ddd\	.	.
.	.	16ccc\	.	.
.	.	16ddd\JJ	.	.
*	*	*8va	*	*
.	.	16bbn\LL	.	.
.	.	16ddd\	.	.
.	.	16ccc\	.	.
.	.	16aaa\	.	.
.	.	16ggg\	.	.
.	.	16aaa\JJ	.	.
=101	=101	=101	=101	=101
2.r	.	16eee\LL	.	.
.	.	16ggg\	.	.
.	.	16fff\	.	.
.	.	16dddd\	.	.
.	.	16cccc\	.	.
.	.	16dddd\JJ	.	.
.	.	16cccc\LL	4	.
.	.	16aaa\	3	.
.	.	16fff\	2	.
.	.	16ddd\	1	.
.	.	16aaa\	5	.
.	.	16bbn\JJ	1	.
*	*	*X8va	*	*
=102	=102	=102	=102	=102
2.r	.	16ccc\LL	5	.
.	.	16aa\	3	.
.	.	16ff\	.	.
.	.	16dd\	.	.
.	.	16aa\	.	.
.	.	16bn\JJ	.	.
.	.	16cc/LL	.	.
.	.	16a/	.	.
.	.	16f/	.	.
.	.	16d/	.	.
.	.	16a/	.	.
.	.	16Bn/JJ	.	.
!!LO:LB:g=original
=103	=103	=103	=103	=103
2.rGG	.	16c/LL	.	.
.	.	16A</	.	.
.	.	16F</	.	.
.	.	16D</	.	.
.	.	16A</	.	.
.	.	16BBn</JJ	.	.
.	.	16C</LL	.	.
.	.	16D</	.	.
.	.	16C</	.	.
.	.	16D</	.	.
.	.	16C</	.	.
.	.	16D</JJ	.	.
=104	=104	=104	=104	=104
2.rGG	.	16C</LL	.	.
.	.	16D</	.	.
.	.	16E</	.	.
.	.	16F</	.	.
.	.	16G</	.	.
.	.	16A</JJ	.	.
.	.	16B-</LL	.	.
.	.	16c/	.	.
.	.	16d/	.	.
.	.	16e/	.	.
.	.	16f/	.	.
.	.	16g/JJ)	.	.
=105	=105	=105	=105	=105
!	!	!	!	!LO:DY:b
4r	.	4g#X/	.	pp
8r	.	8r	.	.
4D 4DD/	.	4g#: 4e: 4Bn: 4G#X:/	.	.
8r	.	8r	.	.
=106	=106	=106	=106	=106
4FF 4FFF/	.	4a: 4f: 4c: 4A:/	.	.
8r	.	8r	.	.
4D 4DD/	.	4g#X: 4e: 4Bn: 4G#X:/	.	.
8r	.	8r	.	.
=107	=107	=107	=107	=107
4FF 4FFF/	.	4a: 4f: 4c: 4A:/	.	.
8r	.	8r	.	.
4r	.	4r	.	.
8r	.	8r	.	.
=108	=108	=108	=108	=108
!	!	!	!	!LO:DY:b:rj
*ped	*	*	*	*
2.c: 2.B-X: 2.C:\	.	2.cc: 2.gn: 2.e:/	.	f
*Xped	*	*	*	*
.	.	.	.	.
=109	=109	=109	=109	=109
!	!	!	!	!LO:DY:b:rj
*ped	*	*	*	*
2.A:;> 2.C: 2.FF:/	.	2.ff:;> 2.cc: 2.a: 2.f:\	.	pp
==	==	==	==	==
*-	*-	*-	*-	*-
!!!system-decoration: {(s1,s2)}
!!!RDF**kern: > = above
!!!RDF**kern: < = below
!!!EED: Antoni Szymański
!!!EST: 2021-06-01
!!!ENC: Andrzej Gręziak
!!!END: 2021-05-02
